X:1
T: Borlum's Rant
C:
R:Strathspey
Q:128
K:G
M:4/4
L:1/16
|:e2|dB3 g3B d4e4|d3B g3B A4e4|dB3 g3B dB3 b3a|g3e d3B A4e4|
dB3 g3B d4e4|d3B g3B A4e4|dB3 g3B dB3 b3a|g3e d3B A4e4|
G3B G3B d4e4|G3B G3B A4e4|G3B G3B G3B G3B|cBcd edcB A4e4|
G3B G3B d4e4|G3B G3B A4e4|G3G D3G B,3G D3B|c3d edcB A4G2:|
